modules/hawcons-filled/icons/document-file-mp3.svg

<?xml version="1.0" encoding="UTF-8" standalone="no"?>
<svg width="32px" height="32px" viewBox="0 0 32 32" version="1.1" xmlns="http://www.w3.org/2000/svg" xmlns:xlink="http://www.w3.org/1999/xlink" xmlns:sketch="http://www.bohemiancoding.com/sketch/ns">
    <!-- Generator: Sketch 3.0.3 (7891) - http://www.bohemiancoding.com/sketch -->
    <title>icon 71 document file mp3</title>
    <desc>Created with Sketch.</desc>
    <defs></defs>
    <g id="Page-1" stroke="none" stroke-width="1" fill="none" fill-rule="evenodd" sketch:type="MSPage">
        <g id="icon-71-document-file-mp3" sketch:type="MSArtboardGroup" fill="#929292">
            <path d="M21,26 L21,28.0025781 C21,29.1090746 20.1057238,30 19.0025781,30 L3.99742191,30 C2.89092539,30 2,29.1012878 2,27.9926701 L2,5.00732994 C2,3.89833832 2.8992496,3 4.0085302,3 L14,3 L14,9.00189865 C14,10.1132936 14.8980806,11 16.0059191,11 L21,11 L21,13 L12.0068483,13 C10.3462119,13 9,14.3422643 9,15.9987856 L9,23.0012144 C9,24.6573979 10.3359915,26 12.0068483,26 L21,26 L21,26 Z M15,3 L15,8.99707067 C15,9.55097324 15.4509752,10 15.990778,10 L21,10 L15,3 L15,3 Z M11.9945615,14 C10.8929956,14 10,14.9001762 10,15.992017 L10,23.007983 C10,24.1081436 10.9023438,25 11.9945615,25 L29.0054385,25 C30.1070044,25 31,24.0998238 31,23.007983 L31,15.992017 C31,14.8918564 30.0976562,14 29.0054385,14 L11.9945615,14 L11.9945615,14 Z M14.5,19 L13,16 L12.5,16 L12,16 L12,23 L13,23 L13,18 L14,20 L14.5,20 L15,20 L16,18 L16,23 L17,23 L17,16 L16.5,16 L16,16 L14.5,19 L14.5,19 Z M24,18 C24,16.8877296 24.897616,16 26.0048815,16 L26.9951185,16 C28.1061002,16 29,16.8954305 29,18 C29,18.6004281 28.7384276,19.1354233 28.3235057,19.5006603 C28.7388841,19.8671162 29,20.4030124 29,21 C29,22.1122704 28.102384,23 26.9951185,23 L26.0048815,23 C24.8938998,23 24,22.1045695 24,21 L25,21 C25,21.5522847 25.4426603,22 25.9989566,22 L27.0010434,22 C27.5527519,22 28,21.5561352 28,21 C28,20.4477153 27.5573397,20 27.0010434,20 L26,20 L26,19 L27.0010434,19 C27.5527519,19 28,18.5561352 28,18 C28,17.4477153 27.5573397,17 27.0010434,17 L25.9989566,17 C25.4472481,17 25,17.4438648 25,18 L24,18 L24,18 Z M18,18 L18,23 L19,23 L19,20 L20.9951185,20 C22.102384,20 23,19.1122704 23,18 C23,16.8954305 22.1061002,16 20.9951185,16 L18,16 L18,18 L18,18 Z M19,17 L19,19 L21.0010434,19 C21.5527519,19 22,18.5561352 22,18 C22,17.4477153 21.5573397,17 21.0010434,17 L19,17 L19,17 Z" id="document-file-mp3" sketch:type="MSShapeGroup"></path>
        </g>
    </g>
</svg>

<svg width="32" height="32" viewBox="0 0 32 32" xmlns="http://www.w3.org/2000/svg"><path d="M21 26v2.003A1.995 1.995 0 0 1 19.003 30H3.997A2 2 0 0 1 2 27.993V5.007C2 3.898 2.9 3 4.009 3H14v6.002c0 1.111.898 1.998 2.006 1.998H21v2h-8.993A3.003 3.003 0 0 0 9 15.999V23A2.996 2.996 0 0 0 12.007 26H21zM15 3v5.997c0 .554.451 1.003.99 1.003H21l-6-7zm-3.005 11C10.893 14 10 14.9 10 15.992v7.016A2 2 0 0 0 11.995 25h17.01C30.107 25 31 24.1 31 23.008v-7.016A2 2 0 0 0 29.005 14h-17.01zm2.505 5L13 16h-1v7h1v-5l1 2h1l1-2v5h1v-7h-1l-1.5 3zm9.5-1c0-1.112.898-2 2.005-2h.99a2 2 0 0 1 1.329 3.5c.415.367.676.903.676 1.5 0 1.112-.898 2-2.005 2h-.99A2 2 0 0 1 24 21h1c0 .552.443 1 .999 1h1.002A.997.997 0 0 0 28 21c0-.552-.443-1-.999-1H26v-1h1.001A.997.997 0 0 0 28 18c0-.552-.443-1-.999-1h-1.002A.997.997 0 0 0 25 18h-1zm-6 0v5h1v-3h1.995a2 2 0 0 0 0-4H18v2zm1-1v2h2.001A.997.997 0 0 0 22 18c0-.552-.443-1-.999-1H19z" fill="#929292" fill-rule="evenodd"/></svg>
